Sources/FrostedUI/Resources/Icons.xcassets/reply16.imageset/reply-16.svg

<svg width="16" height="16" viewBox="0 0 16 16" fill="none" xmlns="http://www.w3.org/2000/svg" data-fui-icon="true">
  <path
    d="M6.57898 2.00262C7.27557 1.54527 8.24988 2.03545 8.24988 2.91376V4.93134C10.7548 5.02246 12.5867 5.59607 13.7753 6.96747C15.052 8.44099 15.4168 10.6514 15.4169 13.4997C15.4167 13.8473 15.1771 14.1502 14.8387 14.2302C14.5429 14.2999 14.239 14.1832 14.0634 13.945L13.996 13.8356L13.6415 13.1423C13.3089 12.5267 13.0105 12.1287 12.4647 11.82C11.7611 11.4223 10.5692 11.1425 8.24988 11.0934V13.0866C8.24941 14.0231 7.14077 14.5179 6.44324 13.8923L0.775269 8.80634C0.29604 8.37603 0.295868 7.62456 0.775269 7.19403L6.44324 2.10712L6.57898 2.00262ZM2.12195 7.99969L6.74988 12.152V10.3337C6.74988 9.91955 7.08578 9.58382 7.49988 9.58368C10.3461 9.5837 12.0612 9.86876 13.202 10.5134C13.4101 10.631 13.5959 10.7607 13.7635 10.8972C13.5773 9.5555 13.2146 8.6114 12.6415 7.94989C11.779 6.9547 10.2738 6.41672 7.49988 6.41669C7.08589 6.41655 6.75005 6.08067 6.74988 5.66669V3.84735L2.12195 7.99969Z"
    fill="currentColor"
  />
</svg>

<svg xmlns="http://www.w3.org/2000/svg" width="16" height="16" fill="none" data-fui-icon="true" viewBox="0 0 16 16"><path fill="currentColor" d="M6.579 2.003c.697-.458 1.67.032 1.67.91v2.018c2.506.091 4.338.665 5.526 2.036 1.277 1.474 1.642 3.684 1.642 6.533a.75.75 0 0 1-1.354.445l-.067-.11-.354-.693c-.333-.615-.631-1.013-1.177-1.322-.704-.398-1.896-.678-4.215-.727v1.994c0 .936-1.11 1.43-1.807.805L.775 8.806a1.084 1.084 0 0 1 0-1.612l5.668-5.087zM2.122 8l4.628 4.152v-1.818a.75.75 0 0 1 .75-.75c2.846 0 4.561.285 5.702.93q.311.177.562.383c-.187-1.341-.55-2.286-1.122-2.947-.863-.995-2.368-1.533-5.142-1.533a.75.75 0 0 1-.75-.75v-1.82z"/></svg>
